images/icons/tool.svg

<svg width="87" height="71" viewBox="0 0 87 71" fill="none" xmlns="http://www.w3.org/2000/svg">
<path d="M72.6297 0.0723877H43.6138C41.9487 0.0723877 40.5729 1.32052 40.3675 2.92849H36.1426C34.589 2.92849 33.3251 4.19093 33.3251 5.74268V5.9751H28.891C25.0506 5.9751 21.8557 8.7797 21.25 12.4443H1.38727C0.690161 12.4443 0.125 13.0093 0.125 13.7066C0.125 14.4039 0.690161 14.9689 1.38727 14.9689H21.25C21.8554 18.636 25.0505 21.4428 28.891 21.4428H33.3251V21.6752C33.3251 23.227 34.589 24.4894 36.1426 24.4894H40.3675C40.5729 26.0974 41.9487 27.3455 43.6138 27.3455H45.5131C45.8229 29.4633 46.3106 32.9598 44.2747 36.1939C43.7476 37.0251 43.8862 37.6531 44.0956 38.0334C44.3043 38.4129 44.7577 38.8652 45.732 38.8652H51.0129L49.5311 53.8342H44.525C39.8357 53.8342 36.0206 57.6399 36.0206 62.3177V68.644C36.0206 69.8334 36.9892 70.8011 38.1798 70.8011H70.5545C71.7451 70.8011 72.7136 69.8334 72.7136 68.644V55.9913C72.7136 54.8019 71.7451 53.8342 70.5545 53.8342H67.0556C67.1018 50.4959 67.3308 47.3103 67.7401 44.3497C67.8356 43.6589 67.3532 43.0217 66.6627 42.9263C65.9714 42.8312 65.3349 43.3134 65.2395 44.0038C64.8145 47.0775 64.5777 50.3794 64.5313 53.8342H52.0679L53.6614 37.737C53.6618 37.7333 53.6621 37.7298 53.6624 37.7261L54.6901 27.3453H70.4118C68.6267 30.5715 67.2712 34.1917 66.2917 38.3461C66.1317 39.0246 66.5521 39.7043 67.2307 39.8644C67.3281 39.8874 67.4256 39.8984 67.5215 39.8984C68.0937 39.8984 68.6119 39.5066 68.7489 38.9254C69.8034 34.4529 71.3088 30.6515 73.3419 27.3268C80.548 26.9559 86.2963 20.9886 86.2963 13.7066C86.296 6.18868 80.1653 0.0723877 72.6297 0.0723877ZM28.891 18.9181C26.012 18.9181 23.6697 16.58 23.6697 13.7064C23.6697 10.8354 26.012 8.49948 28.891 8.49948H33.3251V18.9179H28.891V18.9181ZM35.8496 21.6749V20.1802V7.23721V5.74251C35.8496 5.58279 35.9811 5.45286 36.1426 5.45286H40.3383V21.9644H36.1426C35.9838 21.9645 35.8496 21.8319 35.8496 21.6749ZM70.1889 68.2764H38.545V62.3175C38.545 59.0317 41.2276 56.3586 44.5248 56.3586H46.3445V58.9427C46.3445 61.3311 48.9584 63.5799 50.9844 63.5799H70.1888V68.2764H70.1889ZM70.1889 56.3586V61.0552H50.9846C50.354 61.0552 48.8692 59.9503 48.8692 58.9425V56.3584H50.6727C50.6739 56.3584 50.6749 56.3586 50.6761 56.3586C50.6773 56.3586 50.6784 56.3584 50.6796 56.3584H70.1889V56.3586ZM51.2626 36.3403H47.0737C48.727 32.9041 48.3653 29.469 48.0637 27.3452H52.1529L51.2626 36.3403ZM72.6297 24.8206H67.4848V17.1243C67.4848 16.427 66.9197 15.8621 66.2225 15.8621C65.5254 15.8621 64.9603 16.427 64.9603 17.1243V24.8206H53.5424C53.5419 24.8206 53.5414 24.8206 53.5408 24.8206H43.6138C43.2066 24.8206 42.8628 24.4788 42.8628 24.074V23.2268V4.19076V3.34352C42.8628 2.93892 43.2066 2.59693 43.6138 2.59693H64.9603V11.3073C64.9603 12.0045 65.5254 12.5695 66.2225 12.5695C66.9197 12.5695 67.4848 12.0045 67.4848 11.3073V2.59693H72.6297C78.7732 2.59693 83.7715 7.58054 83.7715 13.7064C83.7715 19.8348 78.7732 24.8206 72.6297 24.8206Z" fill="white"/>
<path d="M71.7087 10.6353C71.0116 10.6353 70.4465 11.2002 70.4465 11.8975V15.5154C70.4465 16.2126 71.0116 16.7776 71.7087 16.7776C72.4059 16.7776 72.971 16.2126 72.971 15.5154V11.8975C72.971 11.2002 72.4059 10.6353 71.7087 10.6353Z" fill="white"/>
<path d="M77.2856 10.6353C76.5885 10.6353 76.0234 11.2002 76.0234 11.8975V15.5154C76.0234 16.2126 76.5885 16.7776 77.2856 16.7776C77.9828 16.7776 78.5479 16.2126 78.5479 15.5154V11.8975C78.5479 11.2002 77.9828 10.6353 77.2856 10.6353Z" fill="white"/>
<path d="M56.0797 5.72266H50.3929C47.9922 5.72266 46.0391 7.67278 46.0391 10.0696C46.0391 12.4664 47.992 14.4163 50.3929 14.4163H56.0797C58.4778 14.4163 60.4286 12.4664 60.4286 10.0696C60.4286 7.67278 58.4776 5.72266 56.0797 5.72266ZM56.0797 11.8918H50.3929C49.3842 11.8918 48.5636 11.0743 48.5636 10.0696C48.5636 9.06464 49.3841 8.2472 50.3929 8.2472H56.0797C57.0858 8.2472 57.9041 9.06464 57.9041 10.0696C57.9041 11.0743 57.0856 11.8918 56.0797 11.8918Z" fill="white"/>
</svg>

<svg width="87" height="71" viewBox="0 0 87 71" fill="none" xmlns="http://www.w3.org/2000/svg"><path d="M72.63.072H43.614a3.277 3.277 0 0 0-3.246 2.856h-4.225a2.819 2.819 0 0 0-2.818 2.815v.232h-4.434a7.753 7.753 0 0 0-7.641 6.47H1.387a1.262 1.262 0 1 0 0 2.524H21.25c.605 3.667 3.8 6.474 7.641 6.474h4.434v.232a2.819 2.819 0 0 0 2.818 2.814h4.224a3.277 3.277 0 0 0 3.247 2.857h1.9c.309 2.117.797 5.614-1.24 8.848-.526.831-.388 1.46-.178 1.84.208.379.662.831 1.636.831h5.28l-1.48 14.97h-5.007c-4.69 0-8.504 3.805-8.504 8.483v6.326a2.16 2.16 0 0 0 2.159 2.157h32.375a2.16 2.16 0 0 0 2.159-2.157V55.991a2.16 2.16 0 0 0-2.16-2.157h-3.498c.046-3.338.275-6.524.684-9.484a1.262 1.262 0 1 0-2.5-.346c-.425 3.074-.662 6.375-.709 9.83H52.068l1.593-16.097.001-.01 1.028-10.382h15.722c-1.785 3.227-3.14 6.847-4.12 11.001a1.262 1.262 0 0 0 2.457.58c1.054-4.473 2.56-8.275 4.593-11.6 7.206-.37 12.954-6.337 12.954-13.62C86.296 6.19 80.166.073 72.63.073ZM28.89 18.918c-2.879 0-5.221-2.338-5.221-5.212 0-2.87 2.342-5.207 5.221-5.207h4.434v10.419h-4.434Zm6.959 2.757V5.743c0-.16.131-.29.293-.29h4.195v16.511h-4.195a.295.295 0 0 1-.293-.29Zm34.339 46.601H38.545v-5.958c0-3.286 2.683-5.96 5.98-5.96h1.82v2.585c0 2.388 2.613 4.637 4.64 4.637h19.204v4.696Zm0-11.917v4.696H50.985c-.631 0-2.116-1.105-2.116-2.112v-2.585h21.32ZM51.263 36.34h-4.19c1.654-3.436 1.292-6.871.99-8.995h4.09l-.89 8.995ZM72.63 24.82h-5.145v-7.696a1.262 1.262 0 1 0-2.525 0v7.697H43.614a.759.759 0 0 1-.751-.747V3.344c0-.405.344-.747.75-.747H64.96v8.71a1.262 1.262 0 1 0 2.525 0v-8.71h5.145c6.143 0 11.142 4.984 11.142 11.11 0 6.128-4.999 11.114-11.142 11.114Z" fill="#fff"/><path d="M71.709 10.635c-.697 0-1.263.565-1.263 1.263v3.617a1.262 1.262 0 1 0 2.525 0v-3.617c0-.698-.565-1.263-1.262-1.263ZM77.286 10.635c-.698 0-1.263.565-1.263 1.263v3.617a1.262 1.262 0 1 0 2.525 0v-3.617c0-.698-.565-1.263-1.262-1.263ZM56.08 5.723h-5.687c-2.4 0-4.354 1.95-4.354 4.347a4.355 4.355 0 0 0 4.354 4.346h5.687a4.353 4.353 0 0 0 4.349-4.346 4.353 4.353 0 0 0-4.35-4.347Zm0 6.169h-5.687a1.828 1.828 0 0 1-1.83-1.822c0-1.005.821-1.823 1.83-1.823h5.687c1.006 0 1.824.818 1.824 1.823a1.825 1.825 0 0 1-1.824 1.822Z" fill="#fff"/></svg>
